src/assets/duotone/ReceiveSquare2.svg

<svg width="24" height="24" viewBox="0 0 24 24"  xmlns="http://www.w3.org/2000/svg">
<path opacity="0.4" d="M16.1898 2H7.81978C4.17978 2 2.00977 4.17 2.00977 7.81V16.18C2.00977 19.82 4.17978 21.99 7.81978 21.99H16.1898C19.8298 21.99 21.9998 19.82 21.9998 16.18V7.81C21.9998 4.17 19.8298 2 16.1898 2Z" />
<path d="M13.0201 12.5901H10.5901C10.1801 12.5901 9.84012 12.9301 9.84012 13.3401C9.84012 13.7501 10.1801 14.0901 10.5901 14.0901H14.8301C14.9301 14.0901 15.0201 14.0701 15.1201 14.0301C15.3001 13.9501 15.4501 13.8101 15.5301 13.6201C15.5701 13.5301 15.5901 13.4301 15.5901 13.3301V9.10011C15.5901 8.69011 15.2501 8.35011 14.8401 8.35011C14.4301 8.35011 14.0901 8.69011 14.0901 9.10011V11.5301L9.71013 7.15012C9.42013 6.86012 8.94012 6.86012 8.65012 7.15012C8.36012 7.44012 8.36012 7.92011 8.65012 8.21011L13.0201 12.5901Z" />
<path d="M18.7102 16.2802C18.5802 15.8902 18.1602 15.6802 17.7602 15.8102C14.0402 17.0502 9.95018 17.0502 6.23018 15.8102C5.84018 15.6802 5.41018 15.8902 5.28018 16.2802C5.15018 16.6702 5.36018 17.1002 5.75018 17.2302C7.76018 17.9002 9.87019 18.2402 11.9902 18.2402C14.1102 18.2402 16.2202 17.9002 18.2302 17.2302C18.6302 17.0902 18.8402 16.6702 18.7102 16.2802Z" />
</svg>

<?xml version="1.0" encoding="UTF-8"?>
<svg width="24" height="24" viewBox="0 0 24 24" xmlns="http://www.w3.org/2000/svg">
 <path d="m16.19 2h-8.37c-3.64 0-5.81 2.17-5.81 5.81v8.37c0 3.64 2.17 5.81 5.81 5.81h8.37c3.64 0 5.81-2.17 5.81-5.81v-8.37c0-3.64-2.17-5.81-5.81-5.81z" opacity=".4"/>
 <path d="m13.02 12.59h-2.43c-0.41 0-0.74998 0.34-0.74998 0.75s0.33998 0.75 0.74998 0.75h4.24c0.1 0 0.19-0.02 0.29-0.06 0.18-0.08 0.33-0.22 0.41-0.41 0.04-0.09 0.06-0.19 0.06-0.29v-4.23c0-0.41-0.34-0.75-0.75-0.75s-0.75 0.34-0.75 0.75v2.43l-4.38-4.38c-0.29-0.29-0.77001-0.29-1.06 0s-0.29 0.76999 0 1.06l4.37 4.38z"/>
 <path d="m18.71 16.28c-0.13-0.39-0.55-0.6-0.95-0.47-3.72 1.24-7.81 1.24-11.53 0-0.39-0.13-0.82 0.08-0.95 0.47s0.08 0.82 0.47 0.95c2.01 0.67 4.12 1.01 6.24 1.01 2.12 0 4.23-0.34 6.24-1.01 0.4-0.14 0.61-0.56 0.48-0.95z"/>
</svg>
